X:1
T:Florissant, LMD
T:Florissant, LMD
T:Charles Hutchinson Gabriel, 1917
T:Public Domain Courtesy of the Cyber Hymnal™
C:Charles Hutchinson Gabriel, 1917
Z:Public Domain
Z:Courtesy of the Cyber Hymnal™
%%score ( 1 2 ) 3
L:1/8
Q:1/4=88
M:3/4
K:G
V:1 treble 
V:2 treble 
V:3 bass 
V:1
 [B,D] | [DB][DB] [Ec]3 [DB] | [DB][CA] [CA]3 [CD] | [CA][CA] [DB]3 [CA] | [CA][B,G] [B,G]3 [=FG] | %5
 [EG][CE] [EG]3 [CE] | [CE][B,D] [B,D]3 [DB] | [^CB][CA] [CA]3 [CE] | %8
"^riten." [DA][EA] [FA]3 [GB] | [Gd][Ad] [Bd]3 [Ge] | [Ge][Gd] [Gd]3 [DG] | [GB][GB] [GB]3 [Gc] | %12
 [Gc][GB] [GB]3 [GB] | [GB][FA] [Ac]3 [Ac] | [Ac][GB] [Gd]3 [Gd] | [Ge][Ge] [Gd]3 G | %16
 [GB][DA] [DG]3 |] %17
V:2
 x | x6 | x6 | x6 | x6 | x6 | x6 | x6 | x6 | x6 | x6 | x6 | x6 | x6 | x6 | x5 G | x5 |] %17
V:3
 [G,,G,] | [G,,G,][G,,G,] [G,,G,]3 [G,,G,] | [D,G,][D,F,] [D,F,]3 [D,F,] | %3
 [D,F,][D,F,] [D,F,]3 [D,F,] | [G,,G,][G,,D,] [G,,D,]3 [B,,G,] | [C,C][C,G,] [C,C]3 [C,G,] | %6
 [G,,G,][G,,G,] [G,,G,]3 [G,,G,] | [G,,G,][G,,G,] [G,,G,]3 [G,,G,] | [D,F,][D,G,] [D,C]3 [G,D] | %9
 [G,B,][G,C] [G,D]3 [G,C] | [G,C][G,B,] [G,B,]3 [G,B,] | [G,D][G,D] [G,D]3 [G,E] | %12
 [G,E][G,D] [G,D]3 [G,D] | [D,D][D,D] [D,D]3 [D,D] | [G,D][G,D] [G,B,]3 [G,B,] | %15
 [C,C][C,C] [B,,D]3 [C,D] | [D,D][D,C] [G,,B,]3 |] %17

